X: 2
T: The Dancing Bear
R: reel
M: 4/4
L: 1/8
K: Emin
The tune is pretty basic. I can't remember Apart chords, but the B harmonies are Em|Em|A|A|C|C|B7|Em:||


Tune 5582	Setting 17632

